lib/logo_tmp/nrk-logo-nrk-super-on-light.svg

<svg width="63" height="22" viewBox="0 0 63 22" fill="none" xmlns="http://www.w3.org/2000/svg">
<path d="M0 18.0034V4.00471H4.59339V18.0034H0ZM10.8428 6.23268L13.4844 18.0034H8.45737L5.30307 4.00471H8.12254C8.76907 3.99632 9.39641 4.22423 9.88691 4.64556C10.3782 5.04922 10.7158 5.60959 10.8428 6.23268ZM14.1744 18.0034V4.00471H18.7678V18.0034H14.1744ZM22.2372 9.32822C21.7422 9.33305 21.2552 9.20354 20.828 8.95356C20.4064 8.70991 20.0563 8.35972 19.8127 7.93814C19.5624 7.51082 19.4329 7.02366 19.4378 6.52848C19.4321 6.03631 19.5618 5.55205 19.8127 5.1286C20.0589 4.71159 20.4086 4.36521 20.828 4.12304C21.2553 3.87336 21.7423 3.74387 22.2372 3.74839C22.7292 3.74309 23.2133 3.87269 23.6369 4.12304C24.0521 4.36734 24.3981 4.71343 24.6424 5.1286C24.893 5.55217 25.0226 6.03635 25.0172 6.52848C25.0218 7.02362 24.8923 7.5107 24.6424 7.93814C24.4007 8.35788 24.0542 8.70776 23.6369 8.95356C23.2133 9.20441 22.7289 9.33404 22.2366 9.32822H22.2372ZM25.7269 18.0034V4.00471H30.3207V18.0034H25.7269ZM36.136 11.6547C36.1489 11.6683 36.2475 11.8293 36.4317 12.1378C36.6159 12.4462 36.8558 12.8406 37.1513 13.3208C37.447 13.8008 37.759 14.3101 38.0874 14.8488C38.4157 15.3875 38.7247 15.8969 39.0143 16.3768C39.3028 16.8568 39.6313 17.399 40 18.0034H34.9531C34.6375 17.4908 34.3515 17.0275 34.0952 16.6134C33.8389 16.1994 33.5665 15.7525 33.2778 15.2727C32.9884 14.7934 32.7024 14.3267 32.4196 13.8728C32.1368 13.4189 31.8938 13.0213 31.6905 12.68C31.4863 12.3385 31.3449 12.1084 31.2663 11.9899C31.0713 11.6958 30.9559 11.3561 30.9315 11.0041C30.951 10.6662 31.0597 10.3396 31.2466 10.0574C31.3254 9.92596 31.47 9.6926 31.6803 9.35742C31.8906 9.02224 32.137 8.62467 32.4196 8.16462C32.7021 7.70456 32.9882 7.23464 33.2778 6.75488C33.5674 6.27511 33.8398 5.82488 34.0952 5.40426C34.3519 4.98408 34.6379 4.51746 34.9531 4.00439H40L36.0962 10.3729C35.9754 10.5619 35.9073 10.7798 35.8991 11.0041C35.9121 11.2395 35.9942 11.4658 36.1353 11.6547H36.136Z" fill="#0A2343"/>
<path d="M56.3448 1.47259C57.5761 1.99483 58.6952 2.74969 59.6406 3.69579C60.5868 4.64128 61.3416 5.76045 61.8638 6.99194C62.403 8.26335 62.6762 9.63172 62.6664 11.0127C62.675 12.3876 62.4019 13.7496 61.8638 15.0148C61.3415 16.2462 60.5866 17.3654 59.6406 18.311C58.6951 19.257 57.5761 20.0118 56.3448 20.5342C55.0732 21.0731 53.7047 21.3462 52.3237 21.3365C50.9426 21.3463 49.5741 21.0733 48.3026 20.5342C47.0732 20.0133 45.957 19.2582 45.0161 18.311C44.0751 17.3633 43.3238 16.2445 42.8029 15.0148C42.2647 13.7497 41.9915 12.3876 42.0003 11.0127C41.9903 9.63171 42.2635 8.2633 42.8029 6.99194C43.3237 5.76215 44.0749 4.64332 45.0161 3.69579C45.9569 2.74845 47.0732 1.99334 48.3026 1.47259C49.5741 0.933388 50.9426 0.660351 52.3237 0.670307C53.7047 0.660469 55.0732 0.933502 56.3448 1.47259ZM55.5715 18.6493C56.5598 18.2353 57.4589 17.6346 58.2197 16.8801C58.9804 16.1262 59.5848 15.2295 59.9982 14.2415C60.4271 13.2195 60.6441 12.1211 60.6362 11.0127C60.644 9.9045 60.427 8.80621 59.9982 7.78425C59.5832 6.79428 58.9791 5.89475 58.2197 5.13604C57.4596 4.37583 56.5606 3.76865 55.5715 3.34749C54.5446 2.91169 53.4392 2.69137 52.3237 2.70019C51.2145 2.69257 50.1157 2.91289 49.0952 3.34749C48.1059 3.76856 47.2066 4.37575 46.4464 5.13604C45.6862 5.89612 45.0791 6.79515 44.6581 7.78425C44.2235 8.8047 44.0031 9.90358 44.0108 11.0127C44.003 12.122 44.2233 13.221 44.6581 14.2415C45.0775 15.2286 45.6849 16.1248 46.4464 16.8801C47.2073 17.6347 48.1067 18.2354 49.0952 18.6493C50.1172 19.0779 51.2155 19.295 52.3237 19.2872C53.4383 19.2962 54.5431 19.0792 55.5715 18.6493ZM47.8093 12.173C47.6633 12.0293 47.5479 11.8577 47.4699 11.6683C47.3919 11.479 47.3529 11.2758 47.3553 11.071C47.3503 10.8602 47.3879 10.6504 47.466 10.4544C47.544 10.2584 47.6607 10.0802 47.8093 9.93044C47.9523 9.78028 48.125 9.6615 48.3163 9.58163C48.5077 9.50175 48.7135 9.46254 48.9209 9.46646C49.134 9.46236 49.3457 9.50135 49.5434 9.58107C49.741 9.6608 49.9205 9.77963 50.0711 9.93044C50.2248 10.0774 50.3463 10.2546 50.4279 10.451C50.5095 10.6473 50.5494 10.8585 50.5451 11.071C50.5467 11.2775 50.5054 11.4821 50.4238 11.6718C50.3422 11.8615 50.2221 12.0321 50.0711 12.173C49.9205 12.3238 49.741 12.4426 49.5434 12.5223C49.3457 12.6021 49.134 12.641 48.9209 12.6369C48.7135 12.6409 48.5077 12.6017 48.3163 12.5218C48.125 12.4419 47.9523 12.3231 47.8093 12.173ZM55.6678 8.78983C55.6807 8.75085 55.7068 8.75085 55.7455 8.78983L56.2094 10.0464C56.2175 10.0809 56.2375 10.1113 56.2657 10.1326C56.294 10.1538 56.3288 10.1645 56.3641 10.1627L57.7364 10.2011C57.7621 10.2011 57.775 10.2111 57.775 10.2304C57.7712 10.2571 57.7574 10.2812 57.7364 10.2981L56.7504 11.1487C56.7309 11.1543 56.7127 11.1639 56.6971 11.1768C56.6814 11.1898 56.6687 11.2059 56.6596 11.2241C56.6505 11.2423 56.6453 11.2621 56.6443 11.2824C56.6433 11.3027 56.6465 11.323 56.6538 11.342L57.0021 12.5986C57.0021 12.663 56.9824 12.6953 56.9438 12.6953L55.8031 11.9413C55.7282 11.9148 55.6464 11.9148 55.5715 11.9413L54.4886 12.6953C54.437 12.6953 54.4178 12.663 54.4309 12.5986L54.7789 11.342C54.782 11.304 54.7747 11.2659 54.7576 11.2318C54.7406 11.1977 54.7145 11.169 54.6822 11.1487L53.6579 10.2981C53.6462 10.2773 53.6396 10.2542 53.6386 10.2304C53.6386 10.2111 53.6447 10.2011 53.6579 10.2011L55.0302 10.1627C55.0682 10.1667 55.1064 10.1572 55.1381 10.136C55.1699 10.1147 55.1933 10.0831 55.2042 10.0464L55.6678 8.78983Z" fill="#00B3C7"/>
</svg>

<svg xmlns="http://www.w3.org/2000/svg" viewBox="0 0 63 22"><path fill="#0A2343" d="M0 18.003V4.005h4.593v13.998H0Zm10.843-11.77 2.641 11.77H8.457L5.303 4.005h2.82a2.655 2.655 0 0 1 1.764.64c.491.404.829.965.956 1.588Zm3.331 11.77V4.005h4.594v13.998h-4.594Zm8.063-8.675a2.737 2.737 0 0 1-1.409-.374 2.778 2.778 0 0 1-1.015-1.016 2.735 2.735 0 0 1-.375-1.41 2.685 2.685 0 0 1 .375-1.4 2.812 2.812 0 0 1 3.824-1.005c.415.244.761.59 1.005 1.006.251.423.38.907.375 1.4.005.495-.125.982-.375 1.41a2.8 2.8 0 0 1-1.005 1.015c-.424.25-.908.38-1.4.374Zm3.49 8.675V4.005h4.594v13.998h-4.594Zm10.409-6.348c.013.013.111.174.296.483.184.308.424.703.72 1.183a384.573 384.573 0 0 1 1.862 3.056c.289.48.617 1.022.986 1.626h-5.047l-.858-1.39c-.256-.414-.529-.86-.817-1.34-.29-.48-.576-.946-.858-1.4a71.148 71.148 0 0 1-.73-1.193 21.119 21.119 0 0 0-.424-.69 2.04 2.04 0 0 1-.334-.986c.019-.338.128-.664.315-.947.078-.131.223-.364.433-.7a217.24 217.24 0 0 0 1.598-2.603l.817-1.35.858-1.4H40l-3.904 6.369c-.12.189-.189.407-.197.631.013.236.095.462.236.65h.001Z"/><path fill="#00B3C7" d="M56.345 1.473a10.4 10.4 0 0 1 3.296 2.223 10.398 10.398 0 0 1 2.223 3.296c.539 1.271.812 2.64.802 4.02a10.065 10.065 0 0 1-.802 4.003 10.406 10.406 0 0 1-5.52 5.52c-1.27.538-2.64.811-4.02.802-1.381.01-2.75-.264-4.021-.803a10.292 10.292 0 0 1-3.287-2.223 10.48 10.48 0 0 1-2.213-3.296A10.059 10.059 0 0 1 42 11.013c-.01-1.381.264-2.75.803-4.021a10.471 10.471 0 0 1 2.213-3.296 10.286 10.286 0 0 1 3.287-2.223c1.271-.54 2.64-.813 4.02-.803 1.382-.01 2.75.264 4.022.803Zm-.773 17.176a8.333 8.333 0 0 0 2.648-1.769 8.193 8.193 0 0 0 2.416-5.867 8.195 8.195 0 0 0-.638-3.229 8.254 8.254 0 0 0-1.778-2.648 8.396 8.396 0 0 0-2.648-1.789 8.149 8.149 0 0 0-3.248-.647 8.098 8.098 0 0 0-3.229.647 8.395 8.395 0 0 0-4.437 4.437 8.096 8.096 0 0 0-.647 3.229 8.092 8.092 0 0 0 .647 3.229 8.273 8.273 0 0 0 1.788 2.638 8.331 8.331 0 0 0 2.65 1.77 8.199 8.199 0 0 0 3.228.637 8.248 8.248 0 0 0 3.248-.638Zm-7.763-6.476a1.52 1.52 0 0 1-.454-1.102 1.566 1.566 0 0 1 .454-1.14 1.496 1.496 0 0 1 1.112-.465 1.583 1.583 0 0 1 1.15.464 1.535 1.535 0 0 1 .474 1.141 1.491 1.491 0 0 1-.474 1.102 1.582 1.582 0 0 1-1.15.464 1.494 1.494 0 0 1-1.112-.464Zm7.859-3.383c.013-.04.039-.04.078 0l.463 1.256a.151.151 0 0 0 .155.117l1.372.038c.026 0 .039.01.039.03a.106.106 0 0 1-.039.067l-.986.85a.148.148 0 0 0-.106.134c0 .02.003.041.01.06l.348 1.257c0 .064-.02.096-.058.096l-1.14-.754a.347.347 0 0 0-.233 0l-1.082.754c-.052 0-.071-.032-.058-.096l.348-1.257a.208.208 0 0 0-.097-.193l-1.024-.85a.15.15 0 0 1-.02-.069c0-.019.007-.029.02-.029l1.372-.038a.163.163 0 0 0 .174-.117l.464-1.256Z"/></svg>
